humanity-icon-theme/Humanity/categories/32/applications-fonts.svg

<?xml version="1.0" encoding="UTF-8" standalone="no"?>
<!-- Created with Inkscape (http://www.inkscape.org/) -->
<svg
   xmlns:svg="http://www.w3.org/2000/svg"
   xmlns="http://www.w3.org/2000/svg"
   xmlns:xlink="http://www.w3.org/1999/xlink"
   version="1.0"
   width="32"
   height="32"
   id="svg3486">
  <defs
     id="defs3488">
    <linearGradient
       id="linearGradient9936">
      <stop
         id="stop9938"
         style="stop-color:#575757;stop-opacity:1"
         offset="0" />
      <stop
         id="stop9940"
         style="stop-color:#333333;stop-opacity:1"
         offset="1" />
    </linearGradient>
    <linearGradient
       id="linearGradient2490">
      <stop
         id="stop2492"
         style="stop-color:#791235;stop-opacity:1"
         offset="0" />
      <stop
         id="stop2494"
         style="stop-color:#dd3b27;stop-opacity:1"
         offset="1" />
    </linearGradient>
    <linearGradient
       id="linearGradient3242">
      <stop
         id="stop3244"
         style="stop-color:#f8b17e;stop-opacity:1"
         offset="0" />
      <stop
         id="stop3246"
         style="stop-color:#e35d4f;stop-opacity:1"
         offset="0.31209752" />
      <stop
         id="stop3248"
         style="stop-color:#c6262e;stop-opacity:1"
         offset="0.57054454" />
      <stop
         id="stop3250"
         style="stop-color:#690b54;stop-opacity:1"
         offset="1" />
    </linearGradient>
    <linearGradient
       id="linearGradient3342">
      <stop
         id="stop3344"
         style="stop-color:#ffffff;stop-opacity:0"
         offset="0" />
      <stop
         id="stop3346"
         style="stop-color:#ffffff;stop-opacity:1"
         offset="1" />
    </linearGradient>
    <linearGradient
       id="linearGradient3434">
      <stop
         id="stop3436"
         style="stop-color:#ffffff;stop-opacity:0"
         offset="0" />
      <stop
         id="stop3438"
         style="stop-color:#ffffff;stop-opacity:1"
         offset="1" />
    </linearGradient>
    <linearGradient
       id="linearGradient3463">
      <stop
         id="stop3465"
         style="stop-color:#000000;stop-opacity:1"
         offset="0" />
      <stop
         id="stop3467"
         style="stop-color:#000000;stop-opacity:0"
         offset="1" />
    </linearGradient>
    <linearGradient
       x1="15"
       y1="17"
       x2="15"
       y2="33.434338"
       id="linearGradient3275"
       xlink:href="#linearGradient3434"
       gradientUnits="userSpaceOnUse"
       gradientTransform="matrix(0.875,0,0,0.8620691,0.1875,-8.8620693)" />
    <linearGradient
       x1="14.498855"
       y1="44.178928"
       x2="14.498855"
       y2="15.875"
       id="linearGradient3278"
       xlink:href="#linearGradient3434"
       gradientUnits="userSpaceOnUse"
       gradientTransform="matrix(0.9333335,0,0,0.8667558,-0.55625,-8.8888588)" />
    <linearGradient
       x1="22.05551"
       y1="15.833781"
       x2="22.05551"
       y2="45.49704"
       id="linearGradient3281"
       xlink:href="#linearGradient9936"
       gradientUnits="userSpaceOnUse"
       gradientTransform="matrix(0.8636143,0,0,0.8719345,-0.1326391,-9.7370562)" />
    <radialGradient
       cx="-6.1603441"
       cy="36.686291"
       r="14.09771"
       fx="-6.1603441"
       fy="36.686291"
       id="radialGradient3287"
       xlink:href="#linearGradient3463"
       gradientUnits="userSpaceOnUse"
       gradientTransform="matrix(0.2544354,0,0,0.1773003,6.1543661,21.995509)" />
    <radialGradient
       cx="-6.1603441"
       cy="36.686291"
       r="14.09771"
       fx="-6.1603441"
       fy="36.686291"
       id="radialGradient3290"
       xlink:href="#linearGradient3463"
       gradientUnits="userSpaceOnUse"
       gradientTransform="matrix(0.8326977,0,0,0.1751907,17.868834,22.102642)" />
    <radialGradient
       cx="-6.1603441"
       cy="36.686291"
       r="14.09771"
       fx="-6.1603441"
       fy="36.686291"
       id="radialGradient3293"
       xlink:href="#linearGradient3463"
       gradientUnits="userSpaceOnUse"
       gradientTransform="matrix(0.6939147,0,0,0.1773003,25.492145,21.995509)" />
    <linearGradient
       x1="143.91531"
       y1="75.220741"
       x2="143.91531"
       y2="103.12598"
       id="linearGradient3296"
       xlink:href="#linearGradient3242"
       gradientUnits="userSpaceOnUse"
       gradientTransform="matrix(1.0006658,0,0,0.9568208,-122.51112,-61.951179)" />
    <linearGradient
       x1="153.40933"
       y1="98.784538"
       x2="153.40933"
       y2="75.220741"
       id="linearGradient3298"
       xlink:href="#linearGradient2490"
       gradientUnits="userSpaceOnUse"
       gradientTransform="matrix(1.0006658,0,0,0.9568208,-122.51112,-61.951179)" />
    <radialGradient
       cx="-6.1603441"
       cy="36.686291"
       r="14.09771"
       fx="-6.1603441"
       fy="36.686291"
       id="radialGradient3301"
       xlink:href="#linearGradient3463"
       gradientUnits="userSpaceOnUse"
       gradientTransform="matrix(0.2544354,0,0,0.1773003,22.458715,21.995508)" />
    <linearGradient
       x1="153.40933"
       y1="98.784538"
       x2="153.40933"
       y2="75.220741"
       id="linearGradient3310"
       xlink:href="#linearGradient3342"
       gradientUnits="userSpaceOnUse"
       gradientTransform="matrix(1.0006658,0,0,0.9568208,-122.51112,-61.951179)" />
  </defs>
  <path
     d="M 24.478261,28.5 C 24.478634,29.880635 22.87259,30.999999 20.891305,30.999999 C 18.910021,30.999999 17.303977,29.880635 17.304349,28.5 C 17.303977,27.119364 18.910021,26 20.891305,26 C 22.87259,26 24.478634,27.119364 24.478261,28.5 L 24.478261,28.5 z"
     id="path3205"
     style="opacity:0.2;fill:url(#radialGradient3301);fill-opacity:1;fill-rule:evenodd;stroke:none;stroke-width:0.99999988;stroke-linecap:butt;stroke-linejoin:round;marker:none;marker-start:none;marker-mid:none;marker-end:none;stroke-miterlimit:4;stroke-dasharray:none;stroke-dashoffset:0;stroke-opacity:1;visibility:visible;display:inline;overflow:visible;enable-background:accumulate" />
  <path
     d="M 29.563443,11.731849 C 29.075585,10.645646 27.885039,10.759421 27.068242,10.586891 C 24.36408,10.281138 21.664552,10.768765 19.39814,12.264835 C 17.210637,13.721244 15.23123,15.691765 13.840793,18.234621 C 12.632223,20.49976 12.089532,23.525849 12.852029,26.408439 C 13.452163,28.348944 15.258782,29.547525 16.78244,29.224327 C 19.114989,28.842032 20.77716,26.714399 22.148343,24.638731 C 22.768402,23.782739 23.149278,22.649087 23.881174,21.9297 C 23.777012,23.774404 23.730368,25.690416 24.156981,27.563662 C 24.399452,28.668192 25.286444,29.538909 26.185376,29.498658 C 27.099928,29.395524 27.796084,28.615437 28.554223,28.106329 C 29.236102,27.512737 30.017183,27.002351 30.500001,26.144141 C 30.416829,24.722522 29.123599,25.615178 28.672194,26.103115 C 28.041157,27.079089 26.737426,26.303584 27.016317,24.97544 C 27.162323,21.94174 27.882114,19.092819 28.490883,16.232651 C 28.833118,14.724815 29.193369,13.22577 29.563445,11.731849 L 29.563443,11.731849 z M 25.78586,13.624862 C 24.627414,17.221001 23.376014,20.881097 21.235042,23.669281 C 20.22493,24.941325 18.743916,26.094795 17.110949,25.482923 C 15.982476,24.991158 15.721029,23.374327 15.696609,22.158042 C 15.550973,18.56642 17.315592,15.591769 19.521669,13.797395 C 21.059427,12.594355 23.047046,12.049837 24.988402,12.637339 C 25.354913,12.77145 25.752471,13.118602 25.78586,13.624864 L 25.78586,13.624862 z"
     id="path3207"
     style="font-size:55.90206146px;font-style:normal;font-variant:normal;font-weight:normal;font-stretch:normal;text-align:start;line-height:100%;writing-mode:lr-tb;text-anchor:start;fill:url(#linearGradient3296);fill-opacity:1;fill-rule:evenodd;stroke:url(#linearGradient3298);stroke-width:1.00000012;stroke-linecap:butt;stroke-linejoin:miter;marker:none;marker-start:none;marker-mid:none;marker-end:none;stroke-miterlimit:4;stroke-dasharray:none;stroke-dashoffset:0;stroke-opacity:1;visibility:visible;display:inline;overflow:visible;enable-background:accumulate;font-family:Gabrielle;-inkscape-font-specification:Gabrielle" />
  <path
     d="M 31,28.500001 C 31.001017,29.880636 26.620896,31 21.217392,31 C 15.813887,31 11.433765,29.880636 11.434782,28.500001 C 11.433765,27.119365 15.813887,26.000001 21.217392,26.000001 C 26.620896,26.000001 31.001017,27.119365 31,28.500001 L 31,28.500001 z"
     id="path3209"
     style="opacity:0.2;fill:url(#radialGradient3293);fill-opacity:1;fill-rule:evenodd;stroke:none;stroke-width:0.99999988;stroke-linecap:butt;stroke-linejoin:round;marker:none;marker-start:none;marker-mid:none;marker-end:none;stroke-miterlimit:4;stroke-dasharray:none;stroke-dashoffset:0;stroke-opacity:1;visibility:visible;display:inline;overflow:visible;enable-background:accumulate" />
  <path
     d="M 24.47826,28.529739 C 24.479481,29.893948 19.223336,30.999993 12.73913,30.999993 C 6.2549245,30.999993 0.99877948,29.893948 1.0000002,28.529739 C 0.99877948,27.165531 6.2549245,26.059486 12.73913,26.059486 C 19.223336,26.059486 24.479481,27.165531 24.47826,28.529739 L 24.47826,28.529739 z"
     id="path3211"
     style="opacity:0.05;fill:url(#radialGradient3290);fill-opacity:1;fill-rule:evenodd;stroke:none;stroke-width:0.99999988;stroke-linecap:butt;stroke-linejoin:round;marker:none;marker-start:none;marker-mid:none;marker-end:none;stroke-miterlimit:4;stroke-dasharray:none;stroke-dashoffset:0;stroke-opacity:1;visibility:visible;display:inline;overflow:visible;enable-background:accumulate" />
  <path
     d="M 8.1739126,28.500001 C 8.1742857,29.880636 6.5682415,31 4.5869567,31 C 2.6056718,31 0.99962767,29.880636 1.0000007,28.500001 C 0.99962767,27.119365 2.6056718,26.000001 4.5869566,26.000001 C 6.5682415,26.000001 8.1742857,27.119365 8.1739126,28.500001 L 8.1739126,28.500001 z"
     id="path3213"
     style="opacity:0.2;fill:url(#radialGradient3287);fill-opacity:1;fill-rule:evenodd;stroke:none;stroke-width:0.99999988;stroke-linecap:butt;stroke-linejoin:round;marker:none;marker-start:none;marker-mid:none;marker-end:none;stroke-miterlimit:4;stroke-dasharray:none;stroke-dashoffset:0;stroke-opacity:1;visibility:visible;display:inline;overflow:visible;enable-background:accumulate" />
  <path
     d="M 25.53125,11.5625 C 24.459292,11.562635 25.981977,11.761244 26.192519,12.205918 C 26.869214,12.779042 26.994276,13.756251 26.60043,14.523593 C 25.878265,16.711612 25.062076,18.874418 24.03125,20.9375 C 25.295481,21.117024 24.799829,22.64839 24.855117,23.520304 C 24.872963,24.958181 24.904953,26.4459 25.392354,27.811932 C 25.776778,28.85277 26.787153,28.136492 27.355144,27.696313 C 27.913036,27.415118 26.670422,27.396812 26.560837,26.966812 C 25.939533,26.373834 25.819626,25.180679 26.03125,24.625 C 26.249401,21.193487 27.072556,17.839957 27.822751,14.496872 C 28.024634,13.663837 28.23326,12.832457 28.4375,12 C 27.744212,11.474271 26.692548,11.698588 25.854192,11.559791 L 25.691753,11.559202 L 25.53125,11.5625 L 25.53125,11.5625 z M 15.53125,17.5 C 13.693046,19.974098 13.060526,23.324818 13.889909,26.293816 C 14.330679,27.563282 15.803459,28.634567 17.153856,28.089793 C 18.140672,27.741104 18.93354,27.012314 19.625,26.25 C 18.28316,26.914652 16.370503,26.811372 15.499068,25.447198 C 14.545576,23.979553 14.581701,22.123705 14.726093,20.44516 C 14.85069,19.431239 15.129197,18.438417 15.53125,17.5 z"
     id="path3305"
     style="font-size:55.90206146px;font-style:normal;font-variant:normal;font-weight:normal;font-stretch:normal;text-align:start;line-height:100%;writing-mode:lr-tb;text-anchor:start;opacity:0.4;fill:none;fill-opacity:1;fill-rule:evenodd;stroke:url(#linearGradient3310);stroke-width:1.00000012;stroke-linecap:butt;stroke-linejoin:miter;marker:none;marker-start:none;marker-mid:none;marker-end:none;stroke-miterlimit:4;stroke-dasharray:none;stroke-dashoffset:0;stroke-opacity:1;visibility:visible;display:inline;overflow:visible;enable-background:accumulate;font-family:Gabrielle;-inkscape-font-specification:Gabrielle" />
  <path
     d="M 19.295181,29.5 C 18.498759,27.223407 17.702337,24.776591 16.905916,22.5 C 16.905916,22.5 7.1198242,22.5 7.1198242,22.5 C 6.3035773,24.804455 5.4873305,27.195542 4.6710843,29.5 C 3.6140557,29.5 2.5570278,29.5 1.4999999,29.5 C 4.5192773,21.166667 7.5385537,12.833334 10.557832,4.4999998 C 11.513655,4.4999998 12.469478,4.4999998 13.425303,4.4999998 C 16.4502,12.833334 19.475101,21.166667 22.500001,29.5 C 21.431728,29.5 20.363454,29.5 19.295181,29.5 z M 15.937499,19.5 C 15.937499,19.5 11.999999,8.3793093 11.999999,8.3793093 C 11.999999,8.3793093 8.0624998,19.5 8.0624998,19.5 C 8.0624998,19.5 15.937499,19.5 15.937499,19.5 z"
     id="path3217"
     style="font-size:40px;font-style:normal;font-variant:normal;font-weight:normal;font-stretch:normal;fill:url(#linearGradient3281);fill-opacity:1;stroke:#333333;stroke-width:0.99999982px;stroke-linecap:butt;stroke-linejoin:miter;stroke-opacity:1;font-family:Droid Sans;-inkscape-font-specification:Sans" />
  <path
     d="M 21.24609,29 C 21.24609,29 12.733733,5.5 12.733733,5.5 C 12.733733,5.5 11.272282,5.5 11.272282,5.5 C 11.272282,5.5 2.7517959,29 2.7517959,29"
     id="path3219"
     style="font-size:40px;font-style:normal;font-variant:normal;font-weight:normal;font-stretch:normal;opacity:0.3;fill:none;fill-opacity:1;stroke:url(#linearGradient3278);stroke-width:0.99999982px;stroke-linecap:butt;stroke-linejoin:miter;stroke-opacity:1;font-family:Droid Sans;-inkscape-font-specification:Sans" />
  <path
     d="M 12,5.5584992 L 17.454448,20.5 L 6.5455496,20.5 L 12,5.5584992 z"
     id="path3221"
     style="opacity:0.2;fill:none;fill-rule:evenodd;stroke:url(#linearGradient3275);stroke-width:0.99999982px;stroke-linecap:butt;stroke-linejoin:round;stroke-opacity:1" />
</svg>

<?xml version="1.0" encoding="UTF-8" standalone="no"?>
<!-- Created with Inkscape (http://www.inkscape.org/) -->
<svg id="svg3486" xmlns="http://www.w3.org/2000/svg" height="32" width="32" version="1.0" xmlns:xlink="http://www.w3.org/1999/xlink">
 <defs id="defs3488">
  <linearGradient id="linearGradient3434">
   <stop id="stop3436" style="stop-color:#fff;stop-opacity:0" offset="0"/>
   <stop id="stop3438" style="stop-color:#fff" offset="1"/>
  </linearGradient>
  <linearGradient id="linearGradient3463">
   <stop id="stop3465" offset="0"/>
   <stop id="stop3467" style="stop-opacity:0" offset="1"/>
  </linearGradient>
  <linearGradient id="linearGradient3275" y2="33.434" xlink:href="#linearGradient3434" gradientUnits="userSpaceOnUse" x2="15" gradientTransform="matrix(.875 0 0 .86207 .1875 -8.8621)" y1="17" x1="15"/>
  <linearGradient id="linearGradient3278" y2="15.875" xlink:href="#linearGradient3434" gradientUnits="userSpaceOnUse" x2="14.499" gradientTransform="matrix(.93333 0 0 .86676 -.55625 -8.8889)" y1="44.179" x1="14.499"/>
  <linearGradient id="linearGradient3281" y2="45.497" gradientUnits="userSpaceOnUse" x2="22.056" gradientTransform="matrix(.86361 0 0 .87193 -.13264 -9.7371)" y1="15.834" x1="22.056">
   <stop id="stop9938" style="stop-color:#575757" offset="0"/>
   <stop id="stop9940" style="stop-color:#333" offset="1"/>
  </linearGradient>
  <radialGradient id="radialGradient3287" xlink:href="#linearGradient3463" gradientUnits="userSpaceOnUse" cy="36.686" cx="-6.1603" gradientTransform="matrix(.25444 0 0 .17730 6.1544 21.996)" r="14.098"/>
  <radialGradient id="radialGradient3290" xlink:href="#linearGradient3463" gradientUnits="userSpaceOnUse" cy="36.686" cx="-6.1603" gradientTransform="matrix(.83270 0 0 .17519 17.869 22.103)" r="14.098"/>
  <radialGradient id="radialGradient3293" xlink:href="#linearGradient3463" gradientUnits="userSpaceOnUse" cy="36.686" cx="-6.1603" gradientTransform="matrix(.69391 0 0 .17730 25.492 21.996)" r="14.098"/>
  <linearGradient id="linearGradient3296" y2="103.13" gradientUnits="userSpaceOnUse" x2="143.92" gradientTransform="matrix(1.0007 0 0 .95682 -122.51 -61.951)" y1="75.221" x1="143.92">
   <stop id="stop3244" style="stop-color:#f8b17e" offset="0"/>
   <stop id="stop3246" style="stop-color:#e35d4f" offset=".31210"/>
   <stop id="stop3248" style="stop-color:#c6262e" offset=".57054"/>
   <stop id="stop3250" style="stop-color:#690b54" offset="1"/>
  </linearGradient>
  <linearGradient id="linearGradient3298" y2="75.221" gradientUnits="userSpaceOnUse" x2="153.41" gradientTransform="matrix(1.0007 0 0 .95682 -122.51 -61.951)" y1="98.785" x1="153.41">
   <stop id="stop2492" style="stop-color:#791235" offset="0"/>
   <stop id="stop2494" style="stop-color:#dd3b27" offset="1"/>
  </linearGradient>
  <radialGradient id="radialGradient3301" xlink:href="#linearGradient3463" gradientUnits="userSpaceOnUse" cy="36.686" cx="-6.1603" gradientTransform="matrix(.25444 0 0 .17730 22.459 21.996)" r="14.098"/>
  <linearGradient id="linearGradient3310" y2="75.221" gradientUnits="userSpaceOnUse" x2="153.41" gradientTransform="matrix(1.0007 0 0 .95682 -122.51 -61.951)" y1="98.785" x1="153.41">
   <stop id="stop3344" style="stop-color:#fff;stop-opacity:0" offset="0"/>
   <stop id="stop3346" style="stop-color:#fff" offset="1"/>
  </linearGradient>
 </defs>
 <path id="path3205" style="opacity:.2;fill-rule:evenodd;fill:url(#radialGradient3301)" d="m24.478 28.5c0.001 1.381-1.605 2.5-3.587 2.5-1.981 0-3.587-1.119-3.587-2.5s1.606-2.5 3.587-2.5c1.982 0 3.588 1.119 3.587 2.5z"/>
 <path id="path3207" style="fill-rule:evenodd;stroke:url(#linearGradient3298);fill:url(#linearGradient3296)" d="m29.563 11.732c-0.487-1.086-1.678-0.973-2.495-1.145-2.704-0.306-5.403 0.182-7.67 1.678-2.187 1.456-4.167 3.427-5.557 5.97-1.209 2.265-1.751 5.291-0.989 8.173 0.6 1.941 2.407 3.14 3.93 2.816 2.333-0.382 3.995-2.51 5.366-4.585 0.62-0.856 1.001-1.99 1.733-2.709-0.104 1.844-0.151 3.76 0.276 5.634 0.242 1.104 1.129 1.975 2.028 1.935 0.915-0.103 1.611-0.884 2.369-1.393 0.682-0.593 1.463-1.104 1.946-1.962-0.083-1.421-1.376-0.529-1.828-0.041-0.631 0.976-1.935 0.201-1.656-1.128 0.146-3.033 0.866-5.882 1.475-8.742 0.342-1.508 0.702-3.007 1.072-4.501zm-3.777 1.893c-1.159 3.596-2.41 7.256-4.551 10.044-1.01 1.272-2.491 2.426-4.124 1.814-1.129-0.492-1.39-2.109-1.414-3.325-0.146-3.592 1.619-6.566 3.825-8.361 1.537-1.203 3.525-1.747 5.466-1.16 0.367 0.134 0.764 0.482 0.798 0.988z"/>
 <path id="path3209" style="opacity:.2;fill-rule:evenodd;fill:url(#radialGradient3293)" d="m31 28.5c0.001 1.381-4.379 2.5-9.783 2.5-5.403 0-9.783-1.119-9.782-2.5-0.001-1.381 4.379-2.5 9.782-2.5 5.404 0 9.784 1.119 9.783 2.5z"/>
 <path id="path3211" style="opacity:.05;fill-rule:evenodd;fill:url(#radialGradient3290)" d="m24.478 28.53c0.001 1.364-5.255 2.47-11.739 2.47-6.4841 0-11.74-1.106-11.739-2.47-0.00122-1.364 5.2549-2.471 11.739-2.471 6.484 0 11.74 1.107 11.739 2.471z"/>
 <path id="path3213" style="opacity:.2;fill-rule:evenodd;fill:url(#radialGradient3287)" d="m8.1739 28.5c0.0004 1.381-1.6057 2.5-3.5869 2.5-1.9813 0-3.5874-1.119-3.587-2.5-0.00037-1.381 1.6057-2.5 3.587-2.5 1.9812 0 3.5873 1.119 3.5869 2.5z"/>
 <path id="path3305" style="opacity:.4;stroke:url(#linearGradient3310);fill:none" d="m25.531 11.562c-1.072 0.001 0.451 0.199 0.662 0.644 0.676 0.573 0.801 1.55 0.407 2.318-0.722 2.188-1.538 4.35-2.569 6.414 1.264 0.179 0.769 1.71 0.824 2.582 0.018 1.438 0.05 2.926 0.537 4.292 0.385 1.041 1.395 0.324 1.963-0.116 0.558-0.281-0.685-0.299-0.794-0.729-0.621-0.593-0.741-1.786-0.53-2.342 0.218-3.432 1.042-6.785 1.792-10.128 0.202-0.833 0.41-1.665 0.615-2.497-0.694-0.526-1.745-0.301-2.584-0.44l-0.162-0.001-0.161 0.003zm-10 5.938c-1.838 2.474-2.47 5.825-1.641 8.794 0.441 1.269 1.913 2.341 3.264 1.796 0.987-0.349 1.78-1.078 2.471-1.84-1.342 0.665-3.254 0.561-4.126-0.803-0.953-1.467-0.917-3.323-0.773-5.002 0.125-1.014 0.403-2.007 0.805-2.945z"/>
 <path id="path3217" style="stroke:#333;stroke-width:1px;fill:url(#linearGradient3281)" d="m19.295 29.5c-0.796-2.277-1.593-4.723-2.389-7h-9.7862c-0.8162 2.304-1.6325 4.696-2.4487 7h-3.1711c3.0193-8.333 6.0386-16.667 9.058-25h2.867c3.025 8.333 6.05 16.667 9.075 25h-3.205zm-3.358-10l-3.937-11.121c0 0.0003-3.9375 11.121-3.9375 11.121h7.8745z"/>
 <path id="path3219" style="opacity:.3;stroke:url(#linearGradient3278);stroke-width:1px;fill:none" d="m21.246 29l-8.512-23.5h-1.462l-8.5202 23.5"/>
 <path id="path3221" style="opacity:.2;stroke-linejoin:round;stroke:url(#linearGradient3275);stroke-width:1px;fill:none" d="m12 5.5585l5.454 14.942h-10.908l5.454-14.942z"/>
</svg>
